svgs/sharp-solid/brush.svg

<svg xmlns="http://www.w3.org/2000/svg" viewBox="0 0 384 512"><!--! Font Awesome Pro 7.1.0 by @fontawesome - https://fontawesome.com License - https://fontawesome.com/license (Commercial License) Copyright 2025 Fonticons, Inc. --><path fill="currentColor" d="M192 64l-32-64-32 0-32 64-32-64-64 0 0 256 384 0 0-256-160 0-32 64zM0 304l0 80 128 0 0 128 128 0 0-128 128 0 0-80-384 0zM192 464c-8.8 0-16-7.2-16-16s7.2-16 16-16 16 7.2 16 16-7.2 16-16 16z"/></svg>

<svg xmlns="http://www.w3.org/2000/svg" viewBox="0 0 384 512"><!--! Font Awesome Pro 6.6.0 by @fontawesome - https://fontawesome.com License - https://fontawesome.com/license (Commercial License) Copyright 2024 Fonticons, Inc. --><path d="M192 64L160 0 128 0 96 64 64 0 0 0 0 256l384 0L384 0 224 0 192 64zM0 288l0 96 128 0 0 128 128 0 0-128 128 0 0-96L0 288zM192 432a16 16 0 1 1 0 32 16 16 0 1 1 0-32z"/></svg>
